X:1
T:James Gibb editions
T:Full fathom five - Wood
T:#
%%score [ ( 1 2 ) ( 3 4 ) 5 6 ]
L:1/8
Q:1/4=120
M:4/4
K:D
V:1 treble nm="Soprano" snm="S"
V:2 treble 
V:3 treble nm="Alto" snm="A"
V:4 treble 
V:5 treble-8 nm="Tenor" snm="T"
V:6 bass nm="Bass" snm="B"
V:1
"^Charles Wood\n (1866-1926)""^William Shakespeare\n(1564-1616)""^Full fathom five""^allegro moderato" z8 | %1
w: |
 z8 |!mf! d4 A3 F | D2 D2 E2 F2 |[M:4/4] (F2 A6- | A2) A2 E2 F2 |"^dim." (F4 A4- | A2) A2 E2 F2 | %8
w: |Full fa- thom|five thy fa- ther|lies, *|* thy fa- ther|lies, *|* thy fa- ther|
 (F8 |!pp! A8- | A2) z2!mp! F2 ^G2 | A3 c (cB) (A^G) | A3 c!<(! (cB) (A^G)!<)! |!f! A8- | %14
w: lies;||* Of his|bones are co\- * ral *|made, are co\- * ral *|made;|
"^dim." A8 | A4!p! d3 c | B2 B2 B2 (dB) | A6 (cB) | G2 G2 G2 (BG) | F8 |"^cresc." D4 E4 | F4 G4 | %22
w: |* Those are|pearls that were his *|eyes, are *|pearls that were his *|eyes;|No- thing|of him|
 A2 d2!f! c4 |!p! D4"^cresc." E4 | F4 G2 G2 | (A2 d2) c4 |!f! d4 =c4 | =f4 _e4 | _e2 d2 =c4 | %29
w: that doth fade,|But doth|suf- fer a|sea * change|In- to|some- thing|rich and strange,|
 _B4 d4 | g4 =f4 | (=f2 _e2) d4 |"^dim." c8- | c8 |!p! c2 z2 z4 |!f! !>!d4 !>!A4 | !>!d4 !>!A4 | %37
w: in- to|some- thing|rich * and|strange|||Sea nymphs|hour- ly|
 !>!F4 !>!A4 | !>!D8 | !>!f4 !>!e4 | !>!d4 !>!A4 | !>!f4 !>!e4 | (!>!d4 A4) | z2!p! D4 EF | %44
w: ring his|knell,|Sea nymphs|hour- ly|ring his|knell *|Hark! now I|
!<(! (G2 A2!<)!!>(! F2) E2!>)! | z2 D4 EF |!<(! (G2 A2!<)!!>(! F2) E2!>)! | %47
w: hear * * them|Hark! now I|hear * * them|
 z2"^cresc." !>!D4 !>!E2- | E2 !>!F4 !>!A2- | A2[Q:1/4=115] !>!d6 | %50
w: Ding- dong,|* ding- dong,|* bell,|
[Q:1/4=109] !>!d4[Q:1/4=104] !>!e4 |!ff![Q:1/4=102] !fermata![df]8 |] %52
w: ding ~~~~~dong|bell.|
V:2
 x8 | x8 | x8 | x8 |[M:4/4] x8 | x8 | x8 | x8 | x8 | x8 | x8 | x8 | x8 | x8 | x8 | x8 | x8 | x8 | %18
 x8 | x8 | x8 | x8 | x8 | x8 | x8 | x8 | x8 | x8 | x8 | x8 | x8 | x8 | x8 | x8 | x8 | x8 | x8 | %37
 x8 | x8 | x8 | x8 | x8 | x8 | x8 | x8 | x8 | x8 | x8 | x2 x2 x2 x2 | x2 x2 x2 x2 | d6 c2 | %51
 x2 x2 x2 x2 |] %52
V:3
 z8 | z8 |!mf! F4 E2 C2 | D2 A,2 B,2 C2 |[M:4/4] (D2 F6- | F2) D2 D2 C2 |"^dim." (D4 F4- | %7
w: ||Full fa- thom|five thy fa- ther|lies, *|* thy fa- ther|lies, *|
 F2) D2 B,2 C2 | (D8- |!pp! F8- | F2) z2!mp! D2 D2 | F2 A2 F2 D2 | C2 A2!<(! F2 D2!<)! | %13
w: * the fa- ther|lies;||* Of his|bones are co- ral|made, are co- ral|
!f! C2 A2 ^G2 E2 |"^dim." F2 C2 D2 E2 | A,4!p! A3 A | A2 A2 G2 G2 | G4 F4 | F2 F2 E2 E2 | (E4 D4) | %20
w: made, Ding- dong, ding-|dong, ding- dong, ding-|dong. Those are|pearls that were his|eyes, are|pearls that were his|eyes; *|
"^cresc." D6 C2 | (C2 D4) E2 | E2 F2!f! E4 |!p! D6"^cresc." C2 | C2 D4 E2 | (E2 F2) E4 | %26
w: No- thing|of * him|that doth fade,|but does|suf- fer a|sea * change|
 z2!f! (=F2 G2) A2 | (_B2 =F2) (G2 A2) | (=c2 _B4) A2 | (A2 G2) A2 _B2 | (=c2 G2) (A2 _B2) | %31
w: In\- * to|some\- * thing *|rich * and|strange, * in- to|some\- * thing *|
 (d2 =c2) _B4 |"^dim." A8- | A8 |!p! A2 !>!A2 !>!G2 !>!E2 |!f! D8- | D8 | D8 | !>!d4 !>!A4 | %39
w: rich * and|strange.||* Ding- dong, ding\-|dong|||Sea nymphs,|
 !>!d4 !>!A4 | !>!F4 !>!E4 | !>!d4 !>!A4 | (!>!F4 E4) | z2!p! D4 DD |!<(! D6!<)!!>(! C2!>)! | %45
w: sea nymphs|hour- ly|ring his|knell *|Hark! now I|hear them|
 z2 D4 DD |!<(! D6!<)!!>(! C2!>)! | z8 |"^cresc." z8 | D4 (E2 F2) | B6 A2 |!ff! x8 |] %52
w: Hark! now I|hear them||||||
V:4
 x8 | x8 | x8 | x8 |[M:4/4] x8 | x8 | x8 | x8 | x8 | x8 | x8 | x8 | x8 | x8 | x8 | x8 | x8 | x8 | %18
w: ||||||||||||||||||
 x8 | x8 | x8 | x8 | x8 | x8 | x8 | x8 | x8 | x8 | x8 | x8 | x8 | x8 | x8 | x8 | x8 | x8 | x8 | %37
w: |||||||||||||||||||
 x8 | x8 | x8 | x8 | x8 | x8 | x8 | x8 | x8 | x8 | x8 | D4 !>!G4 | F4 !>!A4 | D4 !>!G4 | %51
w: |||||||||||Ding- dong,|ding- dong,|ding- dong|
 !fermata![FA]8 |] %52
w: bell.|
V:5
 z8 | z8 | z2!mf!"^marcato" d2 c2 A2 | B2 F2 G2 A2 |[M:4/4][K:treble-8] D8- | D8 | %6
w: ||Ding- dong, ding-|dong, ding- dong, dig-|dong,||
"^dim." D2 d2 c2 A2 | B2 F2 G2 A2 | D8- |!pp! D8 | D2 z2!mp! B2 B2 | c2 e2 d2 B2 | %12
w: * ding- dong, ding-|dong, ding- dong, ding-|dong.||* Of his|bones are co- ral|
 A2 e2!<(! d2 B2!<)! |!f! A4 (B2 c2) |"^dim." (d2 e2) (F2 ^G2) | A4!p! A3 d | d2 d2 e4- | %17
w: made, are co- ral|made are *|co\- * ral *|made; These are|pearls that were|
 e2 e2 e3 d | B2 B2 c4- | c2 (ec) B4 |"^cresc." B6 A2 | (A2 F4) E2 | G2 (FA)!f! A4 | %23
w: * his eyes, are|pearls that were|* his * eyes;|No- thing|of * him|that doth * fade,|
!p! B6"^cresc." A2 | A2 F4 E2 | (G2 FA) A4 | z2!f! (=f2 _e2) =c2 | (d2 A2) (_B2 =c2) | %28
w: But doth|suf- fer a|sea * * change|In\- * to|some\- * thing *|
 =F2 =f2 (_e4- | e2) (g2 =f2) d2 | (e2 _B2) (=c2 d2) | (G2 g2) =f4 |"^dim." e8- | e8 | %34
w: rich and strange,|* in\- * to|some\- * thing *|rich * and|strange||
!p! e2 z2 z4 | z2!f! d2 c2 A2 | B2 F2 G2 A2 | D8- | D8 | D2 d2 c2 A2 | B2 F2 G2 A2 | D8- | D8 | %43
w: |Ding- dong, ding-|dong, ding- dong, ding-|dong||* ding- dong, ding-|dong, ding- dong, ding-|dong||
 z2!p! D4 DD |!<(! (D4!<)!!>(! d2) B2!>)! | z2 D4 DD |!<(! (D4!<)!!>(! d2) B2!>)! | %47
w: Hark! now I|hear * them|Hark! now I|hear * them|
 z2"^cresc." d2 c2 A2 | B2 F2 G2 A2 | D8- | D8 |!ff! !fermata!d8 |] %52
w: Ding- dong, ding-|dong, ding- dong, ding-|dong||bell.|
V:6
 z2!mf!"^marcato" D2 C2 A,2 | B,2 F,2 G,2 A,2 | D,8- | D,8 |[M:4/4] D,2 D2 C2 A,2 | %5
w: Ding- dong, ding-|dong, ding- dong, ding-|dong,||* Ding- dong, ding-|
 B,2 F,2 G,2 A,2 |"^dim." D,8- | D,8 | D,2 F,2 G,2 A,2 |!pp! D,8- | D,2 z2!mp! B,,2 B,,2 | %11
w: dong, ding- dong, ding-|dong,||* ding- dong, ding-|dong.|* Of his|
 F,2 C,2 D,2 E,2 | F,2 C,2!<(! D,2 E,2!<)! |!f! A,,8- |"^dim." A,,8 | A,,4!p! F,3 F, | %16
w: bones are co- ral|made, are co- ral|made;||* These are|
 G,2 F,2 E,2 D,2 | C,4 D,4 | E,2 D,2 C,2 B,,2 | (^A,,4 B,,2 =A,,2) |"^cresc." z2 G,,4 A,,2- | %21
w: pearls that were his|eyes, are|pearls that were his|eyes, * *|No- thing|
 A,,2 B,,4 C,2- | C,2 D,F,!f! A,4 | z2!p! G,,4"^cresc." A,,2- | A,,2 B,,4 C,2- | %25
w: * of him|* that doth fade|But doth|* suf- fer|
 C,2 (D,F,) A,2 G,2 |!f! =F,8- | F,4 =F,4 | =F,6 ^F,2 | G,8- | G,8 | G,6 ^G,2 | %32
w: * a * sea change|In\-|* to|some- thing|rich||* and|
"^dim." A,2 A,2 ^G,2 E,2 | F,2 C,2 D,2 E,2 |!p! A,,2 !>!A,2 !>!G,2 !>!E,2 |!f! D,8- | D,8 | %37
w: strange. Ding- dong, ding-|dong, ding- dong, ding\-|dong, ding- dong, ding\-|dong||
 D,2"^marcato" D2 C2 A,2 | B,2 F,2 G,2 A,2 | D,8- | D,8 | D,2 D2 C2 A,2 | B,2 F,2 G,2 A,2 | %43
w: * Ding- dong, ding-|dong, ding- dong, ding-|dong.||* Ding- dong, ding-|dong, ding- dong, ding-|
 D,2!p! D,2 C,2 A,,2 | B,,2 F,,2 G,,2 A,,2 | D,2 D,2 C,2 A,,2 | B,,2 F,,2 (G,,2 A,,2) | %47
w: dong, ding- dong, ding-|dong, ding- dong, ding-|dong, ding- dong, ding-|dong, ding- dong *|
"^cresc." [D,,D,]8- | [D,,D,]8 | [D,,D,]2 !>!D2 !>!C2 !>!A,2 | !>!B,2 !>!F,2 !>!G,2 !>!A,2 | %51
w: bell,||* Ding- dong, ding-|dong, ding, ding- dong|
!ff! !fermata!D,8 |] %52
w: bell.|

